X: 5210
T: British Grenadiers' March
R: polka
M: 2/4
K: Gmajor
|:D|GD GA|Bc/B/ AB/c/|dG B/A/G/F/|G2 G:|
|:B/c/|d>e dc|Bc dd|ee d/c/B/A/|G2 FD|
GF/G/ AG/A/|BA/B/ cB/c/|dG B/A/G/F/|G2 G:|

